X:41
T: ES JUG EIN JAEGER WILD UND SCHWEIN
N: E0019G
O: Europa, Mitteleuropa, Deutschland, Frankfurt, Odenthal
R: Sage, Maerchen -, Zauber - Lied
M: 4/4
L: 1/16
K: F
FA | c4A4f4d4 | c4c2B2A8 |
A4A4c4A4 | A4G4G8 |
F2G2A4G2G2G4 | F4f4c8 |
A2A2A4c4c2B2 | A8z6

@@@ Tune index: 3691
